img/refresh-icon.svg

<svg width="16" height="17" viewBox="0 0 16 17" fill="none" xmlns="http://www.w3.org/2000/svg">
<path fill-rule="evenodd" clip-rule="evenodd" d="M13.6503 3.34999C12.0203 1.71999 9.71027 0.779992 7.17027 1.03999C3.50027 1.40999 0.480265 4.38999 0.0702655 8.05999C-0.479735 12.91 3.27027 17 8.00027 17C11.1903 17 13.9303 15.13 15.2103 12.44C15.5303 11.77 15.0503 11 14.3103 11C13.9403 11 13.5903 11.2 13.4303 11.53C12.3003 13.96 9.59027 15.5 6.63027 14.84C4.41027 14.35 2.62027 12.54 2.15027 10.32C1.31027 6.43999 4.26027 2.99999 8.00027 2.99999C9.66027 2.99999 11.1403 3.68999 12.2203 4.77999L10.7103 6.28999C10.0803 6.91999 10.5203 7.99999 11.4103 7.99999H15.0003C15.5503 7.99999 16.0003 7.54999 16.0003 6.99999V3.40999C16.0003 2.51999 14.9203 2.06999 14.2903 2.69999L13.6503 3.34999Z" fill="#1D92FF"/>
</svg>

<svg width="16" height="17" fill="none" xmlns="http://www.w3.org/2000/svg"><path fill-rule="evenodd" clip-rule="evenodd" d="M13.65 3.35a7.95 7.95 0 0 0-6.48-2.31C3.5 1.41.48 4.39.07 8.06-.48 12.91 3.27 17 8 17a7.98 7.98 0 0 0 7.21-4.56c.32-.67-.16-1.44-.9-1.44-.37 0-.72.2-.88.53a5.994 5.994 0 0 1-6.8 3.31c-2.22-.49-4.01-2.3-4.48-4.52A6.002 6.002 0 0 1 8 3c1.66 0 3.14.69 4.22 1.78l-1.51 1.51c-.63.63-.19 1.71.7 1.71H15c.55 0 1-.45 1-1V3.41c0-.89-1.08-1.34-1.71-.71l-.64.65z" fill="#1D92FF"/></svg>
